src/assets/settings-icon.svg

<svg width="26" height="26" viewBox="0 0 26 26" fill="none" xmlns="http://www.w3.org/2000/svg">
<path d="M14.0833 26H11.9167C11.0208 26 10.2917 25.2709 10.2917 24.375V22.3578C9.59825 22.1574 8.92946 21.88 8.29779 21.5307L6.87104 22.958C6.25679 23.5723 5.187 23.5712 4.57275 22.958L3.04038 21.4262C2.73325 21.1196 2.56425 20.7112 2.56425 20.2773C2.56425 19.8434 2.73325 19.435 3.04038 19.1284L4.46767 17.7006C4.11839 17.0694 3.84129 16.401 3.64163 15.7078H1.625C0.729083 15.7078 0 14.9787 0 14.0828V11.9161C0 11.4817 0.169 11.0738 0.475583 10.7673C0.626222 10.6159 0.80536 10.4959 1.00265 10.4142C1.19993 10.3324 1.41146 10.2906 1.625 10.2911H3.64217C3.84258 9.59888 4.11883 8.931 4.46875 8.29833L3.042 6.87104C2.73762 6.56617 2.56667 6.15297 2.56667 5.72217C2.56667 5.29136 2.73762 4.87816 3.042 4.57329L4.57383 3.04092C5.18754 2.42775 6.25788 2.42667 6.87213 3.04092L8.29942 4.46821C8.9306 4.1194 9.59885 3.84233 10.2917 3.64217V1.625C10.2917 0.729083 11.0208 0 11.9167 0H14.0833C14.9793 0 15.7083 0.729083 15.7083 1.625V3.64217C16.4017 3.84258 17.069 4.11937 17.7006 4.46821L19.1279 3.04092C19.7421 2.42775 20.8119 2.42667 21.4262 3.04092L22.9585 4.57275C23.2657 4.87933 23.4347 5.28775 23.4347 5.72163C23.4347 6.1555 23.2657 6.56392 22.9585 6.8705L21.5318 8.29779C21.8812 8.92914 22.1585 9.59779 22.3584 10.2911H24.375C25.2709 10.2911 26 11.0202 26 11.9161V14.0828C26 14.5172 25.831 14.9251 25.5244 15.2317C25.2178 15.5383 24.8094 15.7078 24.375 15.7078H22.3578C22.1575 16.401 21.8803 17.0696 21.5313 17.7011L22.958 19.1284C23.2624 19.4333 23.4333 19.8465 23.4333 20.2773C23.4333 20.7081 23.2624 21.1213 22.958 21.4262L21.4262 22.9585C20.8119 23.5722 19.7421 23.5722 19.1279 22.9585L17.7017 21.5313C17.0703 21.8802 16.4019 22.1575 15.7089 22.3578V24.375C15.7082 24.8059 15.5366 25.2188 15.2319 25.5234C14.9272 25.8281 14.5142 25.9994 14.0833 26ZM8.21004 20.3114C8.307 20.3114 8.40504 20.3374 8.49225 20.3905C9.25664 20.8585 10.0895 21.2041 10.9606 21.4148C11.0787 21.4433 11.1838 21.5108 11.259 21.6063C11.3341 21.7018 11.375 21.8198 11.375 21.9413V24.375C11.375 24.674 11.6182 24.9167 11.9167 24.9167H14.0833C14.3818 24.9167 14.625 24.674 14.625 24.375V21.9413C14.625 21.8198 14.6659 21.7018 14.741 21.6063C14.8162 21.5108 14.9213 21.4433 15.0394 21.4148C15.9103 21.2042 16.743 20.8588 17.5072 20.391C17.7217 20.2605 17.9958 20.2935 18.1729 20.4701L19.8943 22.1921C20.0975 22.3947 20.4571 22.3958 20.6608 22.1921L22.1926 20.6597C22.2942 20.5581 22.3512 20.4204 22.3512 20.2767C22.3512 20.1331 22.2942 19.9954 22.1926 19.8938L20.4707 18.1718C20.3847 18.0859 20.3301 17.9734 20.3158 17.8527C20.3014 17.7319 20.3281 17.6099 20.3916 17.5061C20.8593 16.7419 21.2045 15.9092 21.4148 15.0383C21.4432 14.9201 21.5106 14.8149 21.6061 14.7396C21.7017 14.6643 21.8197 14.6234 21.9413 14.6234H24.375C24.4461 14.6237 24.5166 14.6099 24.5824 14.5828C24.6482 14.5558 24.7079 14.516 24.7583 14.4657C24.8086 14.4155 24.8485 14.3558 24.8757 14.2901C24.9029 14.2244 24.9168 14.1539 24.9167 14.0828V11.9161C24.9167 11.6171 24.6735 11.3745 24.375 11.3745H21.9413C21.8197 11.3745 21.7016 11.3336 21.6061 11.2583C21.5105 11.1831 21.4432 11.0778 21.4148 10.9595C21.2046 10.0886 20.8593 9.25589 20.3916 8.49171C20.3281 8.38797 20.3014 8.26591 20.3158 8.14515C20.3301 8.0244 20.3847 7.91198 20.4707 7.826L22.1926 6.10404C22.2934 6.00275 22.3513 5.86354 22.3513 5.72108C22.3513 5.57863 22.2934 5.43887 22.1926 5.33812L20.6602 3.80629C20.5569 3.70803 20.4197 3.65323 20.277 3.65323C20.1344 3.65323 19.9972 3.70803 19.8938 3.80629L18.1718 5.52825C18.0861 5.61467 17.9737 5.66953 17.8528 5.68389C17.7319 5.69825 17.6097 5.67127 17.5061 5.60733C16.7422 5.1398 15.9099 4.79456 15.0394 4.58413C14.9213 4.55587 14.8162 4.48866 14.741 4.39333C14.6658 4.298 14.625 4.18012 14.625 4.05871V1.625C14.625 1.326 14.3818 1.08333 14.0833 1.08333H11.9167C11.6182 1.08333 11.375 1.326 11.375 1.625V4.05871C11.375 4.18023 11.3341 4.29822 11.259 4.39371C11.1838 4.4892 11.0787 4.55665 10.9606 4.58521C10.0897 4.79561 9.25707 5.14085 8.49279 5.60842C8.38917 5.67193 8.26717 5.69867 8.14648 5.68432C8.0258 5.66997 7.91347 5.61537 7.82763 5.52933L6.10567 3.80738C6.00227 3.70911 5.86508 3.65432 5.72244 3.65432C5.5798 3.65432 5.4426 3.70911 5.33921 3.80738L3.80792 5.33921C3.70637 5.44079 3.64932 5.57854 3.64932 5.72217C3.64932 5.8658 3.70637 6.00355 3.80792 6.10513L5.52988 7.82708C5.61587 7.91306 5.67043 8.02548 5.68478 8.14623C5.69912 8.26699 5.67242 8.38906 5.60896 8.49279C5.14131 9.25683 4.79606 10.0893 4.58575 10.9601C4.5573 11.0783 4.4899 11.1835 4.39439 11.2588C4.29889 11.334 4.18084 11.375 4.05925 11.375H1.625C1.55383 11.3747 1.48331 11.3885 1.4175 11.4156C1.35169 11.4427 1.29189 11.4825 1.24154 11.5328C1.19119 11.5831 1.15129 11.6429 1.12414 11.7087C1.09699 11.7745 1.08312 11.845 1.08333 11.9161V14.0828C1.08333 14.3818 1.32654 14.6245 1.625 14.6245H4.05871C4.30896 14.6245 4.52671 14.7956 4.58521 15.0394C4.79561 15.9101 5.14084 16.7426 5.60842 17.5067C5.67187 17.6104 5.69858 17.7325 5.68423 17.8532C5.66989 17.974 5.61533 18.0864 5.52933 18.1724L3.80738 19.8949C3.70663 19.9962 3.64867 20.1354 3.64867 20.2778C3.64867 20.4203 3.70663 20.56 3.80738 20.6608L5.33975 22.1926C5.44315 22.2909 5.58034 22.3457 5.72298 22.3457C5.86562 22.3457 6.00281 22.2909 6.10621 22.1926L7.82763 20.4707C7.87762 20.4201 7.93718 20.38 8.00284 20.3526C8.06849 20.3253 8.13892 20.3113 8.21004 20.3114Z" fill="#024EC9"/>
<path d="M13.0002 18.4167C10.0134 18.4167 7.5835 15.9868 7.5835 13C7.5835 10.0133 10.0134 7.58334 13.0002 7.58334C15.9869 7.58334 18.4168 10.0133 18.4168 13C18.4168 15.9868 15.9875 18.4167 13.0002 18.4167ZM13.0002 8.66668C10.6109 8.66668 8.66683 10.6107 8.66683 13C8.66683 15.3893 10.6109 17.3333 13.0002 17.3333C15.3895 17.3333 17.3335 15.3893 17.3335 13C17.3335 10.6107 15.39 8.66668 13.0002 8.66668Z" fill="#5F35E6"/>
</svg>

<svg width="26" height="26" fill="none" xmlns="http://www.w3.org/2000/svg"><path d="M14.083 26h-2.166c-.896 0-1.625-.73-1.625-1.625v-2.017a9.665 9.665 0 01-1.994-.827L6.87 22.958c-.614.614-1.684.613-2.298 0L3.04 21.426a1.613 1.613 0 01-.476-1.149c0-.434.17-.842.476-1.149l1.428-1.427a9.608 9.608 0 01-.826-1.993H1.625c-.896 0-1.625-.73-1.625-1.625v-2.167c0-.434.169-.842.476-1.149a1.615 1.615 0 011.149-.476h2.017c.2-.692.477-1.36.827-1.993L3.042 6.871a1.626 1.626 0 010-2.298l1.532-1.532c.614-.613 1.684-.614 2.298 0L8.3 4.468a9.665 9.665 0 011.993-.826V1.625A1.625 1.625 0 0111.917 0h2.166c.896 0 1.625.73 1.625 1.625v2.017c.694.2 1.361.477 1.993.826l1.427-1.427c.614-.613 1.684-.614 2.298 0l1.533 1.532c.307.306.476.715.476 1.149 0 .433-.17.842-.476 1.148l-1.427 1.428c.35.631.627 1.3.826 1.993h2.017c.896 0 1.625.73 1.625 1.625v2.167c0 .434-.169.842-.476 1.149a1.616 1.616 0 01-1.149.476h-2.017a9.671 9.671 0 01-.827 1.993l1.427 1.427a1.626 1.626 0 010 2.298l-1.532 1.533c-.614.613-1.684.613-2.298 0l-1.426-1.428c-.632.35-1.3.627-1.993.827v2.017A1.628 1.628 0 0114.083 26zM8.21 20.311c.097 0 .195.026.282.08a8.599 8.599 0 002.469 1.024.542.542 0 01.414.526v2.434c0 .299.243.542.542.542h2.166a.542.542 0 00.542-.542v-2.434a.542.542 0 01.414-.526 8.597 8.597 0 002.468-1.024.542.542 0 01.666.08l1.721 1.721a.558.558 0 00.767 0l1.532-1.532a.541.541 0 000-.766l-1.722-1.722a.541.541 0 01-.08-.666 8.59 8.59 0 001.024-2.468.542.542 0 01.526-.415h2.434a.539.539 0 00.542-.54v-2.167a.542.542 0 00-.542-.542h-2.434a.541.541 0 01-.526-.415 8.587 8.587 0 00-1.023-2.467.541.541 0 01.079-.666l1.722-1.722a.546.546 0 000-.766L20.66 3.806a.556.556 0 00-.766 0l-1.722 1.722a.539.539 0 01-.666.08 8.593 8.593 0 00-2.467-1.024.54.54 0 01-.414-.525V1.625a.542.542 0 00-.542-.542h-2.166a.542.542 0 00-.542.542v2.434a.542.542 0 01-.414.526 8.599 8.599 0 00-2.468 1.023.54.54 0 01-.665-.079L6.106 3.807a.556.556 0 00-.767 0L3.808 5.34a.542.542 0 000 .766L5.53 7.827a.542.542 0 01.079.666 8.588 8.588 0 00-1.023 2.467.542.542 0 01-.527.415H1.625a.539.539 0 00-.542.541v2.167c0 .299.244.541.542.541h2.434c.25 0 .468.172.526.415.21.871.556 1.704 1.023 2.468a.542.542 0 01-.079.665l-1.722 1.723a.547.547 0 00-.158.383.55.55 0 00.158.383l1.533 1.532a.556.556 0 00.766 0l1.722-1.722a.537.537 0 01.382-.16z" fill="#024EC9"/><path d="M13 18.417A5.423 5.423 0 017.583 13 5.423 5.423 0 0113 7.583 5.423 5.423 0 0118.417 13 5.422 5.422 0 0113 18.417zm0-9.75A4.338 4.338 0 008.667 13 4.338 4.338 0 0013 17.333 4.338 4.338 0 0017.334 13 4.338 4.338 0 0013 8.667z" fill="#5F35E6"/></svg>
